Yaru++/actions/16/mail-mark-unread.svg

<svg height="16" width="16" xmlns="http://www.w3.org/2000/svg"><g fill="#808080" transform="translate(-572.00004 -260)"><path d="m572.38841 265.89185-.38837.59584 7 5.01231-2 2s2.72412-1.22906 4-2c2.45979-1.48631 7-5.03358 7-5.03358l-.38837-.57457-7.61296 4.59385z"/><path d="m575.99418 263.09977c-1.2582.0145-2.17889-.0306-2.93164.38477-.37637.20766-.67323.55938-.83789.99804-.16467.43867-.22461.95959-.22461 1.61719v.86523h1v-.86523c0-.59239.0626-1.00572.16016-1.26563.0976-.25991.20135-.37146.38476-.47265.36596-.20192 1.19655-.24702 2.45508-.26172h8c1.25862.0152 2.0891.0599 2.45508.26172.18342.10116.28722.21284.38476.47265.0974.25978.16016.67324.16016 1.26563v.86523h1v-.86523c0-.6576-.0599-1.17858-.22461-1.61719-.16468-.4386-.46153-.78853-.83789-.99609-.75272-.41513-1.67355-.37164-2.93164-.38672h-.002-8.00586z"/><path d="m0 5.8652344v6.1347656c0 .65761.05989938 1.178578.22460938 1.617188.16467999.438609.46153062.788523.83789062.996093.75272.41513 1.6735406.371649 2.9316406.386719h.0019532 8.0058592.003906c1.25819-.0145 2.178891.030604 2.931641-.384766.37637-.20766.673221-.559386.837891-.998046.16453-.438671.224609-.959578.224609-1.617188v-6.1347656h-1v6.1347656c0 .59239-.062596 1.005725-.160156 1.265625-.0976.25991-.201356.371466-.384766.472656-.36596.20192-1.196558.247009-2.455078.261719h-7.9941406-.0058594c-1.25863-.0152-2.0890981-.059899-2.4550781-.261719-.18342-.10116-.2872257-.212856-.3847657-.472656-.0976-.25979-.1601562-.673235-.1601562-1.265625v-6.1347656z" transform="translate(572.00004 260)"/></g></svg>

<?xml version="1.0" encoding="UTF-8" standalone="no"?>
<svg
   xmlns:dc="http://purl.org/dc/elements/1.1/"
   xmlns:cc="http://creativecommons.org/ns#"
   xmlns:rdf="http://www.w3.org/1999/02/22-rdf-syntax-ns#"
   xmlns:svg="http://www.w3.org/2000/svg"
   xmlns="http://www.w3.org/2000/svg"
   xmlns:sodipodi="http://sodipodi.sourceforge.net/DTD/sodipodi-0.dtd"
   xmlns:inkscape="http://www.inkscape.org/namespaces/inkscape"
   height="16"
   width="16"
   version="1.1"
   id="svg10"
   sodipodi:docname="4.svg"
   inkscape:version="0.92.4 (5da689c313, 2019-01-14)">
  <metadata
     id="metadata16">
    <rdf:RDF>
      <cc:Work
         rdf:about="">
        <dc:format>image/svg+xml</dc:format>
        <dc:type
           rdf:resource="http://purl.org/dc/dcmitype/StillImage" />
        <dc:title></dc:title>
      </cc:Work>
    </rdf:RDF>
  </metadata>
  <defs
     id="defs14" />
  <sodipodi:namedview
     pagecolor="#ffffff"
     bordercolor="#666666"
     borderopacity="1"
     objecttolerance="10"
     gridtolerance="10"
     guidetolerance="10"
     inkscape:pageopacity="0"
     inkscape:pageshadow="2"
     inkscape:window-width="1920"
     inkscape:window-height="1016"
     id="namedview12"
     showgrid="false"
     inkscape:zoom="256"
     inkscape:cx="14.224438"
     inkscape:cy="9.6571282"
     inkscape:window-x="0"
     inkscape:window-y="27"
     inkscape:window-maximized="1"
     inkscape:current-layer="g8" />
  <g
     fill="#808080"
     transform="translate(-572.00004 -260)"
     id="g8">
    <path
       d="m572.38841 265.89185-.38837.59584 7 5.01231-2 2s2.72412-1.22906 4-2c2.45979-1.48631 7-5.03358 7-5.03358l-.38837-.57457-7.61296 4.59385z"
       id="path2" />
    <path
       d="m 575.99418,263.09977 c -1.2582,0.0145 -2.17889,-0.0306 -2.93164,0.38477 -0.37637,0.20766 -0.67323,0.55938 -0.83789,0.99804 -0.16467,0.43867 -0.22461,0.95959 -0.22461,1.61719 v 0.86523 h 1 v -0.86523 c 0,-0.59239 0.0626,-1.00572 0.16016,-1.26563 0.0976,-0.25991 0.20135,-0.37146 0.38476,-0.47265 0.36596,-0.20192 1.19655,-0.24702 2.45508,-0.26172 h 8 c 1.25862,0.0152 2.0891,0.0599 2.45508,0.26172 0.18342,0.10116 0.28722,0.21284 0.38476,0.47265 0.0974,0.25978 0.16016,0.67324 0.16016,1.26563 v 0.86523 h 1 v -0.86523 c 0,-0.6576 -0.0599,-1.17858 -0.22461,-1.61719 -0.16468,-0.4386 -0.46153,-0.78853 -0.83789,-0.99609 -0.75272,-0.41513 -1.67355,-0.37164 -2.93164,-0.38672 h -0.002 -8.00586 z"
       id="path4"
       inkscape:connector-curvature="0" />
    <path
       d="M 0 5.8652344 L 0 12 C 0 12.65761 0.059899375 13.178578 0.22460938 13.617188 C 0.38928937 14.055797 0.68614 14.405711 1.0625 14.613281 C 1.81522 15.028411 2.7360406 14.98493 3.9941406 15 L 3.9960938 15 L 12.001953 15 L 12.005859 15 C 13.264049 14.9855 14.18475 15.030604 14.9375 14.615234 C 15.31387 14.407574 15.610721 14.055848 15.775391 13.617188 C 15.939921 13.178517 16 12.65761 16 12 L 16 5.8652344 L 15 5.8652344 L 15 12 C 15 12.59239 14.937404 13.005725 14.839844 13.265625 C 14.742244 13.525535 14.638488 13.637091 14.455078 13.738281 C 14.089118 13.940201 13.25852 13.98529 12 14 L 4.0058594 14 L 4 14 C 2.74137 13.9848 1.9109019 13.940101 1.5449219 13.738281 C 1.3615019 13.637121 1.2576962 13.525425 1.1601562 13.265625 C 1.0625562 13.005835 1 12.59239 1 12 L 1 5.8652344 L 0 5.8652344 z "
       transform="translate(572.00004,260)"
       id="path815" />
  </g>
</svg>
